tools/download-figma-icons/icons/outlined-medium/family-house.svg

<svg width="24" height="24" viewBox="0 0 24 24" fill="none" xmlns="http://www.w3.org/2000/svg">
<path fill-rule="evenodd" clip-rule="evenodd" d="M22.5 10.4998H21.75C21.3353 10.4998 21 10.835 21 11.2498V22.499H20.2395L20.148 16.1683C20.076 14.456 19.6943 13.2253 19.0695 12.5615C19.3372 12.1918 19.5 11.7403 19.5 11.2498C19.5 10.0093 18.4905 8.99979 17.25 8.99979C16.0095 8.99979 15 10.0093 15 11.2498C15 11.7388 15.1612 12.1895 15.4282 12.5593C14.805 13.2215 14.424 14.453 14.352 16.1683L14.3168 18.5923C14.16 18.3125 13.98 18.0665 13.7738 17.867C14.0677 17.4868 14.25 17.0158 14.25 16.499C14.25 15.2585 13.2405 14.249 12 14.249C10.7595 14.249 9.75 15.2585 9.75 16.499C9.75 17.0158 9.93225 17.4868 10.2262 17.867C9.98475 18.1018 9.77025 18.3905 9.59775 18.7333C9.46575 17.2625 9.108 16.1848 8.556 15.578C8.83125 15.2045 9 14.7478 9 14.249C9 13.0085 7.9905 11.9998 6.75 11.9998C5.5095 11.9998 4.5 13.0085 4.5 14.249C4.5 14.747 4.668 15.203 4.9425 15.5765C4.311 16.2703 3.924 17.5745 3.852 19.3948L3.7695 22.499H3V11.2498C3 10.835 2.66475 10.4998 2.25 10.4998H1.5V9.38004L12 1.67979L22.5 9.38004V10.4998ZM17.25 11.9998C16.836 11.9998 16.5 11.6638 16.5 11.2498C16.5 10.8358 16.836 10.4998 17.25 10.4998C17.664 10.4998 18 10.8358 18 11.2498C18 11.6638 17.664 11.9998 17.25 11.9998ZM17.8357 13.4991C18.0412 13.4991 18.567 14.2851 18.6487 16.2103L18.7387 22.4961L15.7612 22.4983L15.8512 16.2208C15.9345 14.2828 16.452 13.4991 16.653 13.4991H17.8357ZM12 17.2491C11.586 17.2491 11.25 16.9131 11.25 16.4991C11.25 16.0851 11.586 15.7491 12 15.7491C12.414 15.7491 12.75 16.0851 12.75 16.4991C12.75 16.9131 12.414 17.2491 12 17.2491ZM12.3472 18.7491C12.741 18.7491 13.3327 19.5291 13.3995 20.7913L13.4692 22.4968L10.5307 22.4983L10.6005 20.7966C10.6687 19.5276 11.259 18.7491 11.6527 18.7491H12.3472ZM6.75 14.9991C6.336 14.9991 6 14.6631 6 14.2491C6 13.8351 6.336 13.4991 6.75 13.4991C7.164 13.4991 7.5 13.8351 7.5 14.2491C7.5 14.6631 7.164 14.9991 6.75 14.9991ZM7.33576 16.4991C7.48351 16.4991 8.06101 17.2378 8.14876 19.4451L8.23051 22.4953L5.26951 22.4983L5.35051 19.4503C5.43976 17.2371 6.00826 16.4991 6.15301 16.4991H7.33576ZM4.5 2.24981H6V4.21931L4.5 5.31956V2.24981ZM23.694 8.39456L12.444 0.144563C12.1785 -0.0481875 11.8215 -0.0481875 11.556 0.144563L7.5 3.11906V1.49981C7.5 1.08506 7.16475 0.749812 6.75 0.749812H3.75C3.33525 0.749812 3 1.08506 3 1.49981V6.41981L0.306 8.39456C0.11325 8.53631 0 8.76131 0 8.99981V11.2498C0 11.6646 0.33525 11.9998 0.75 11.9998H1.5V23.2491C1.5 23.6638 1.83525 23.9991 2.25 23.9991H3.7305V23.9998L4.485 23.9991H8.96925V23.9998L9.9795 23.9991H14.2388V23.9998L15.0997 23.9991H21.75C22.1647 23.9991 22.5 23.6638 22.5 23.2491V11.9998H23.25C23.6647 11.9998 24 11.6646 24 11.2498V8.99981C24 8.76131 23.8867 8.53631 23.694 8.39456Z" fill="black"/>
</svg>

<svg xmlns="http://www.w3.org/2000/svg" width="24" height="24" fill="none" viewBox="0 0 24 24"><path fill="currentColor" fill-rule="evenodd" d="M22.5 10.5h-.75a.75.75 0 0 0-.75.75v11.249h-.76l-.092-6.33c-.072-1.713-.454-2.944-1.078-3.607.267-.37.43-.822.43-1.312 0-1.24-1.01-2.25-2.25-2.25S15 10.01 15 11.25c0 .489.161.94.428 1.31-.623.662-1.004 1.893-1.076 3.608l-.035 2.424a3.1 3.1 0 0 0-.543-.725c.294-.38.476-.851.476-1.368 0-1.24-1.01-2.25-2.25-2.25s-2.25 1.01-2.25 2.25c0 .517.182.988.476 1.368a3.2 3.2 0 0 0-.628.866c-.132-1.47-.49-2.548-1.042-3.155.275-.373.444-.83.444-1.329 0-1.24-1.01-2.25-2.25-2.25a2.25 2.25 0 0 0-2.25 2.25c0 .498.168.954.442 1.327-.631.694-1.018 1.999-1.09 3.819l-.083 3.104H3v-11.25a.75.75 0 0 0-.75-.75H1.5V9.38L12 1.68l10.5 7.7zM17.25 12a.75.75 0 1 1 0-1.5.75.75 0 0 1 0 1.5m.586 1.5c.205 0 .731.785.813 2.71l.09 6.286-2.978.002.09-6.277c.083-1.938.601-2.722.802-2.722zM12 17.25a.75.75 0 1 1 0-1.501.75.75 0 0 1 0 1.5m.347 1.5c.394 0 .986.78 1.053 2.041l.07 1.706-2.94.001.07-1.701c.069-1.27.659-2.048 1.053-2.048zM6.75 15a.75.75 0 1 1 0-1.501.75.75 0 0 1 0 1.5m.586 1.5c.148 0 .725.738.813 2.945l.082 3.05-2.961.003.08-3.048c.09-2.213.658-2.95.803-2.95zM4.5 2.25H6v1.97l-1.5 1.1zm19.194 6.145L12.444.145a.75.75 0 0 0-.888 0L7.5 3.119V1.5a.75.75 0 0 0-.75-.75h-3A.75.75 0 0 0 3 1.5v4.92L.306 8.396A.75.75 0 0 0 0 9v2.25c0 .415.335.75.75.75h.75v11.25c0 .414.335.75.75.75h19.5a.75.75 0 0 0 .75-.75V12h.75a.75.75 0 0 0 .75-.75V9a.75.75 0 0 0-.306-.605" clip-rule="evenodd"/></svg>
